;FLAVOR:Marlin
;TIME:16445
;Filament used: 6.65657m
;Layer height: 0.2
;MINX:11.75
;MINY:52.25
;MINZ:0.2
;MAXX:223.25
;MAXY:182.75
;MAXZ:8.4
;Generated with Cura_SteamEngine 4.7.0
M140 S60
M105
M190 S60
M104 S200
M105
M109 S200
M82 ;absolute extrusion mode
; Ender 3 Custom Start G-code
G92 E0 ; Reset Extruder
G28 ; Home all axes
G1 Z2.0 F3000 ; Move Z Axis up little to prevent scratching of Heat Bed
G1 X0.1 Y20 Z0.3 F5000.0 ; Move to start position
G1 X0.1 Y200.0 Z0.3 F1500.0 E15 ; Draw the first line
G1 X0.4 Y200.0 Z0.3 F5000.0 ; Move to side a little
G1 X0.4 Y20 Z0.3 F1500.0 E30 ; Draw the second line
G92 E0 ; Reset Extruder
G1 Z2.0 F3000 ; Move Z Axis up little to prevent scratching of Heat Bed
G1 X5 Y20 Z0.3 F5000.0 ; Move over to prevent blob squish
G92 E0
G92 E0
G1 F3000 E-5
;LAYER_COUNT:42
;LAYER:0
M107
G0 F6000 X22.295 Y53.534 Z0.2
;TYPE:SKIRT
G1 F3000 E0
G1 F1200 X22.572 Y53.423 E0.00496
G1 X22.887 Y53.303 E0.01057
G1 X22.98 Y53.269 E0.01222
G1 X23.823 Y52.999 E0.02694
G1 X24.607 Y52.782 E0.04046
G1 X25.084 Y52.661 E0.04865
G1 X25.132 Y52.65 E0.04947
G1 X25.809 Y52.517 E0.06094
G1 X26.12 Y52.466 E0.06618
G1 X26.411 Y52.422 E0.07108
G1 X26.616 Y52.394 E0.07452
G1 X27.231 Y52.328 E0.0848
G1 X27.369 Y52.317 E0.08711
G1 X27.657 Y52.298 E0.0919
G1 X27.882 Y52.286 E0.09565
G1 X28.279 Y52.272 E0.10226
G1 X29.441 Y52.252 E0.12159
G1 X29.63 Y52.25 E0.12473
G1 X205.37 Y52.25 E3.0473
G1 X205.559 Y52.252 E3.05044
G1 X206.662 Y52.271 E3.06879
G1 X207.391 Y52.307 E3.08092
G1 X208.06 Y52.363 E3.09209
G1 X208.565 Y52.417 E3.10053
G1 X208.634 Y52.426 E3.10169
G1 X209.748 Y52.631 E3.12053
G1 X210.347 Y52.773 E3.13077
G1 X211.058 Y52.966 E3.14302
G1 X211.634 Y53.144 E3.15304
G1 X212.267 Y53.361 E3.16417
G1 X212.328 Y53.384 E3.16526
G1 X213.167 Y53.741 E3.18042
G1 X213.887 Y54.083 E3.19367
G1 X214.453 Y54.372 E3.20424
G1 X214.526 Y54.412 E3.20563
G1 X214.984 Y54.678 E3.21444
G1 X215.211 Y54.817 E3.21886
G1 X215.481 Y54.987 E3.22417
G1 X215.602 Y55.066 E3.22657
G1 X216.295 Y55.559 E3.24071
G1 X216.915 Y56.036 E3.25372
G1 X217.467 Y56.49 E3.26561
G1 X217.541 Y56.555 E3.26725
G1 X217.855 Y56.841 E3.27431
G1 X218.052 Y57.028 E3.27883
G1 X218.339 Y57.311 E3.28553
G1 X218.432 Y57.406 E3.28774
G1 X218.71 Y57.7 E3.29447
G1 X218.931 Y57.943 E3.29993
G1 X219.171 Y58.216 E3.30598
G1 X219.228 Y58.283 E3.30744
G1 X219.748 Y58.944 E3.32143
G1 X220.216 Y59.588 E3.33467
G1 X220.66 Y60.248 E3.34789
G1 X220.706 Y60.322 E3.34934
G1 X221.092 Y60.994 E3.36223
G1 X221.433 Y61.64 E3.37438
G1 X221.75 Y62.291 E3.38642
G1 X221.8 Y62.403 E3.38846
G1 X221.968 Y62.802 E3.39566
G1 X222.074 Y63.067 E3.40041
G1 X222.173 Y63.322 E3.40496
G1 X222.212 Y63.427 E3.40682
G1 X222.501 Y64.323 E3.42247
G1 X222.718 Y65.107 E3.436
G1 X222.839 Y65.584 E3.44419
G1 X222.85 Y65.632 E3.44501
G1 X222.985 Y66.321 E3.45668
G1 X223.035 Y66.628 E3.46185
G1 X223.073 Y66.877 E3.46604
G1 X223.102 Y67.085 E3.46954
G1 X223.173 Y67.736 E3.48043
G1 X223.184 Y67.875 E3.48274
G1 X223.202 Y68.152 E3.48736
G1 X223.214 Y68.375 E3.49107
G1 X223.228 Y68.777 E3.49776
G1 X223.248 Y69.941 E3.51712
G1 X223.25 Y70.13 E3.52027
G1 X223.25 Y164.87 E5.0958
G1 X223.248 Y165.059 E5.09894
G1 X223.229 Y166.162 E5.11729
G1 X223.193 Y166.891 E5.12943
G1 X223.137 Y167.56 E5.14059
G1 X223.083 Y168.065 E5.14904
G1 X223.074 Y168.134 E5.15019
G1 X222.869 Y169.248 E5.16903
G1 X222.727 Y169.847 E5.17927
G1 X222.535 Y170.553 E5.19144
G1 X222.357 Y171.13 E5.20148
G1 X222.205 Y171.587 E5.20949
G1 X222.18 Y171.657 E5.21072
G1 X221.908 Y172.346 E5.22304
G1 X221.784 Y172.631 E5.22821
G1 X221.633 Y172.964 E5.23429
G1 X221.227 Y173.756 E5.24909
G1 X220.842 Y174.438 E5.26212
G1 X220.509 Y174.989 E5.27282
G1 X220.48 Y175.034 E5.27371
G1 X219.946 Y175.791 E5.28912
G1 X219.458 Y176.424 E5.30241
G1 X219.032 Y176.943 E5.31358
G1 X218.97 Y177.014 E5.31515
G1 X218.667 Y177.347 E5.32263
G1 X218.466 Y177.559 E5.32749
G1 X218.118 Y177.909 E5.3357
G1 X217.804 Y178.207 E5.3429
G1 X217.57 Y178.42 E5.34816
G1 X217.315 Y178.645 E5.35382
G1 X217.239 Y178.71 E5.35548
G1 X216.549 Y179.253 E5.37008
G1 X215.904 Y179.721 E5.38333
G1 X215.318 Y180.118 E5.3951
G1 X215.261 Y180.154 E5.39622
G1 X214.869 Y180.391 E5.40384
G1 X214.575 Y180.56 E5.40948
G1 X214.222 Y180.754 E5.41618
G1 X213.459 Y181.126 E5.4303
G1 X212.735 Y181.445 E5.44345
G1 X212.103 Y181.701 E5.45479
G1 X212.046 Y181.722 E5.4558
G1 X211.177 Y182.001 E5.47098
G1 X210.393 Y182.218 E5.48451
G1 X209.916 Y182.339 E5.49269
G1 X209.868 Y182.35 E5.49351
G1 X209.191 Y182.483 E5.50499
G1 X208.88 Y182.534 E5.51023
G1 X208.589 Y182.578 E5.51512
G1 X208.384 Y182.606 E5.51856
G1 X207.769 Y182.672 E5.52885
G1 X207.631 Y182.683 E5.53115
G1 X207.343 Y182.702 E5.53595
G1 X207.118 Y182.714 E5.5397
G1 X206.721 Y182.728 E5.5463
G1 X205.559 Y182.748 E5.56563
G1 X205.37 Y182.75 E5.56878
G1 X29.63 Y182.75 E8.49134
G1 X29.441 Y182.748 E8.49449
G1 X28.338 Y182.729 E8.51283
G1 X27.609 Y182.693 E8.52497
G1 X26.94 Y182.637 E8.53613
G1 X26.435 Y182.583 E8.54458
G1 X26.366 Y182.574 E8.54574
G1 X25.252 Y182.369 E8.56457
G1 X24.653 Y182.227 E8.57481
G1 X23.947 Y182.035 E8.58698
G1 X23.37 Y181.857 E8.59702
G1 X22.877 Y181.692 E8.60567
G1 X22.805 Y181.666 E8.60694
G1 X22.141 Y181.402 E8.61882
G1 X21.85 Y181.275 E8.6241
G1 X21.553 Y181.14 E8.62953
G1 X20.741 Y180.725 E8.64469
G1 X20.061 Y180.341 E8.65768
G1 X19.461 Y179.977 E8.66935
G1 X19.415 Y179.947 E8.67026
G1 X18.708 Y179.445 E8.68468
G1 X18.075 Y178.957 E8.69798
G1 X17.563 Y178.537 E8.70899
G1 X17.485 Y178.469 E8.71071
G1 X17.132 Y178.147 E8.71866
G1 X16.927 Y177.952 E8.72336
G1 X16.641 Y177.67 E8.73004
G1 X16.555 Y177.582 E8.73209
G1 X15.996 Y176.965 E8.74593
G1 X15.516 Y176.393 E8.75835
G1 X15.106 Y175.874 E8.76935
G1 X15.04 Y175.785 E8.77119
G1 X14.758 Y175.386 E8.77932
G1 X14.563 Y175.097 E8.78512
G1 X14.317 Y174.716 E8.79266
G1 X14.272 Y174.643 E8.79408
G1 X13.904 Y173.998 E8.80643
G1 X13.56 Y173.345 E8.81871
G1 X13.252 Y172.712 E8.83041
G1 X13.205 Y172.607 E8.83233
G1 X13.034 Y172.205 E8.83959
G1 X12.923 Y171.928 E8.84455
G1 X12.803 Y171.613 E8.85016
G1 X12.769 Y171.52 E8.85181
G1 X12.5 Y170.682 E8.86644
G1 X12.281 Y169.892 E8.88008
G1 X12.125 Y169.258 E8.89093
G1 X12.015 Y168.68 E8.90072
G1 X11.964 Y168.367 E8.90599
G1 X11.924 Y168.101 E8.91047
G1 X11.896 Y167.898 E8.91387
G1 X11.828 Y167.269 E8.9244
G1 X11.817 Y167.131 E8.9267
G1 X11.798 Y166.848 E8.93141
G1 X11.786 Y166.625 E8.93513
G1 X11.772 Y166.223 E8.94182
G1 X11.752 Y165.059 E8.96118
G1 X11.75 Y164.87 E8.96432
G1 X11.75 Y70.13 E10.53985
G1 X11.752 Y69.941 E10.543
G1 X11.771 Y68.838 E10.56134
G1 X11.807 Y68.109 E10.57348
G1 X11.863 Y67.44 E10.58465
G1 X11.917 Y66.935 E10.59309
G1 X11.926 Y66.866 E10.59425
G1 X12.131 Y65.752 E10.61309
G1 X12.273 Y65.153 E10.62332
G1 X12.465 Y64.447 E10.63549
G1 X12.643 Y63.87 E10.64553
G1 X12.795 Y63.413 E10.65354
G1 X12.82 Y63.343 E10.65478
G1 X13.099 Y62.639 E10.66737
G1 X13.227 Y62.346 E10.67269
G1 X13.356 Y62.062 E10.67788
G1 X13.773 Y61.244 E10.69314
G1 X14.158 Y60.562 E10.70617
G1 X14.533 Y59.946 E10.71816
G1 X14.569 Y59.891 E10.71926
G1 X14.824 Y59.518 E10.72677
G1 X15.002 Y59.269 E10.73186
G1 X15.186 Y59.019 E10.73702
G1 X15.277 Y58.899 E10.73953
G1 X15.82 Y58.239 E10.75374
G1 X16.307 Y57.691 E10.76593
G1 X16.854 Y57.118 E10.7791
G1 X16.931 Y57.043 E10.78089
G1 X17.218 Y56.773 E10.78745
G1 X17.464 Y56.55 E10.79297
G1 X17.74 Y56.308 E10.79907
G1 X17.799 Y56.258 E10.80036
G1 X18.451 Y55.747 E10.81413
G1 X19.096 Y55.279 E10.82739
G1 X19.791 Y54.814 E10.84129
G1 X19.869 Y54.766 E10.84282
G1 X20.505 Y54.403 E10.85499
G1 X21.152 Y54.062 E10.86716
G1 X21.743 Y53.773 E10.8781
G1 X21.849 Y53.725 E10.88003
G1 X22.295 Y53.534 E10.8881
G0 F6000 X22.444 Y53.906
G1 F1200 X22.721 Y53.795 E10.89306
G1 X23.024 Y53.678 E10.89846
G1 X23.117 Y53.644 E10.90011
G1 X23.929 Y53.384 E10.91429
G1 X24.713 Y53.167 E10.92782
G1 X25.221 Y53.04 E10.93653
G1 X25.874 Y52.912 E10.94759
G1 X26.185 Y52.861 E10.95283
G1 X26.466 Y52.819 E10.95756
G1 X26.671 Y52.791 E10.961
G1 X27.263 Y52.727 E10.9709
G1 X27.401 Y52.716 E10.9732
G1 X27.678 Y52.697 E10.97782
G1 X27.903 Y52.685 E10.98157
G1 X28.286 Y52.672 E10.98794
G1 X29.63 Y52.65 E11.0103
G1 X205.37 Y52.65 E13.93286
G1 X206.656 Y52.671 E13.95425
G1 X207.357 Y52.706 E13.96592
G1 X208.026 Y52.762 E13.97709
G1 X208.513 Y52.814 E13.98523
G1 X208.582 Y52.823 E13.98639
G1 X209.656 Y53.02 E14.00455
G1 X210.255 Y53.162 E14.01479
G1 X210.94 Y53.349 E14.0266
G1 X211.516 Y53.527 E14.03662
G1 X212.126 Y53.736 E14.04735
G1 X212.187 Y53.759 E14.04843
G1 X212.995 Y54.102 E14.06303
G1 X213.715 Y54.444 E14.07628
G1 X214.261 Y54.723 E14.08648
G1 X214.334 Y54.763 E14.08786
G1 X214.775 Y55.019 E14.09634
G1 X215.002 Y55.158 E14.10077
G1 X215.262 Y55.322 E14.10588
G1 X215.383 Y55.401 E14.10829
G1 X216.052 Y55.876 E14.12193
G1 X216.672 Y56.353 E14.13494
G1 X217.203 Y56.79 E14.14638
G1 X217.277 Y56.855 E14.14801
G1 X217.58 Y57.131 E14.15483
G1 X217.777 Y57.318 E14.15935
G1 X218.054 Y57.591 E14.16581
G1 X218.147 Y57.686 E14.16803
G1 X218.414 Y57.969 E14.1745
G1 X218.635 Y58.212 E14.17996
G1 X218.867 Y58.475 E14.18579
G1 X218.924 Y58.542 E14.18725
G1 X219.425 Y59.18 E14.20074
G1 X219.893 Y59.824 E14.21398
G1 X220.32 Y60.459 E14.22671
G1 X220.366 Y60.533 E14.22816
G1 X220.738 Y61.181 E14.24058
G1 X221.079 Y61.827 E14.25273
G1 X221.384 Y62.454 E14.26433
G1 X221.434 Y62.566 E14.26637
G1 X221.597 Y62.95 E14.2733
G1 X221.703 Y63.215 E14.27805
G1 X221.798 Y63.461 E14.28244
G1 X221.837 Y63.566 E14.2843
G1 X222.116 Y64.429 E14.29938
G1 X222.333 Y65.213 E14.31291
G1 X222.46 Y65.721 E14.32162
G1 X222.59 Y66.385 E14.33287
G1 X222.64 Y66.692 E14.33804
G1 X222.676 Y66.932 E14.34208
G1 X222.705 Y67.14 E14.34557
G1 X222.774 Y67.768 E14.35608
G1 X222.785 Y67.907 E14.3584
G1 X222.803 Y68.173 E14.36283
G1 X222.815 Y68.396 E14.36654
G1 X222.828 Y68.784 E14.373
G1 X222.85 Y70.13 E14.39539
G1 X222.85 Y164.87 E15.97092
G1 X222.829 Y166.156 E15.99231
G1 X222.794 Y166.857 E16.00398
G1 X222.738 Y167.526 E16.01514
G1 X222.686 Y168.013 E16.02329
G1 X222.677 Y168.082 E16.02445
G1 X222.48 Y169.156 E16.04261
G1 X222.338 Y169.755 E16.05284
G1 X222.153 Y170.435 E16.06456
G1 X221.975 Y171.012 E16.0746
G1 X221.828 Y171.452 E16.08232
G1 X221.803 Y171.522 E16.08356
G1 X221.541 Y172.186 E16.09543
G1 X221.417 Y172.471 E16.10059
G1 X221.27 Y172.796 E16.10653
G1 X220.879 Y173.559 E16.12078
G1 X220.494 Y174.241 E16.13381
G1 X220.173 Y174.772 E16.14413
G1 X220.144 Y174.817 E16.14502
G1 X219.629 Y175.547 E16.15987
G1 X219.141 Y176.18 E16.17317
G1 X218.73 Y176.68 E16.18393
G1 X218.668 Y176.751 E16.1855
G1 X218.376 Y177.072 E16.19271
G1 X218.175 Y177.284 E16.19757
G1 X217.841 Y177.621 E16.20546
G1 X217.757 Y177.702 E16.2074
G1 X217.534 Y177.911 E16.21249
G1 X217.3 Y178.124 E16.21775
G1 X217.055 Y178.341 E16.22319
G1 X216.979 Y178.406 E16.22485
G1 X216.314 Y178.929 E16.23892
G1 X215.669 Y179.397 E16.25218
G1 X215.104 Y179.78 E16.26353
G1 X215.047 Y179.816 E16.26465
G1 X214.67 Y180.044 E16.27198
G1 X214.376 Y180.213 E16.27761
G1 X214.033 Y180.402 E16.28413
G1 X213.298 Y180.76 E16.29772
G1 X212.574 Y181.079 E16.31088
G1 X211.964 Y181.325 E16.32182
G1 X211.907 Y181.346 E16.32283
G1 X211.071 Y181.616 E16.33744
G1 X210.287 Y181.833 E16.35097
G1 X209.779 Y181.96 E16.35968
G1 X209.126 Y182.088 E16.37074
G1 X208.815 Y182.139 E16.37598
G1 X208.534 Y182.181 E16.38071
G1 X208.329 Y182.209 E16.38415
G1 X207.737 Y182.273 E16.39405
G1 X207.599 Y182.284 E16.39635
G1 X207.322 Y182.303 E16.40097
G1 X207.097 Y182.315 E16.40472
G1 X206.714 Y182.328 E16.41109
G1 X205.37 Y182.35 E16.43344
G1 X29.63 Y182.35 E19.35601
G1 X28.344 Y182.329 E19.3774
G1 X27.643 Y182.294 E19.38907
G1 X26.974 Y182.238 E19.40024
G1 X26.487 Y182.186 E19.40838
G1 X26.418 Y182.177 E19.40954
G1 X25.344 Y181.98 E19.4277
G1 X24.745 Y181.838 E19.43794
G1 X24.065 Y181.653 E19.44966
G1 X23.488 Y181.475 E19.4597
G1 X23.013 Y181.316 E19.46803
G1 X22.941 Y181.29 E19.4693
G1 X22.301 Y181.035 E19.48076
G1 X22.01 Y180.908 E19.48604
G1 X21.72 Y180.777 E19.49133
G1 X20.938 Y180.377 E19.50594
G1 X20.258 Y179.993 E19.51892
G1 X19.68 Y179.642 E19.53017
G1 X19.634 Y179.612 E19.53108
G1 X18.952 Y179.128 E19.54499
G1 X18.319 Y178.64 E19.55828
G1 X17.825 Y178.235 E19.56891
G1 X17.747 Y178.167 E19.57063
G1 X17.407 Y177.857 E19.57828
G1 X17.202 Y177.662 E19.58298
G1 X16.927 Y177.391 E19.5894
G1 X16.841 Y177.303 E19.59145
G1 X16.302 Y176.708 E19.6048
G1 X15.822 Y176.136 E19.61722
G1 X15.428 Y175.636 E19.62781
G1 X15.362 Y175.547 E19.62965
G1 X15.089 Y175.162 E19.6375
G1 X14.894 Y174.873 E19.64329
G1 X14.658 Y174.506 E19.65055
G1 X14.613 Y174.433 E19.65198
G1 X14.258 Y173.811 E19.66389
G1 X13.914 Y173.158 E19.67616
G1 X13.617 Y172.549 E19.68743
G1 X13.57 Y172.444 E19.68934
G1 X13.406 Y172.056 E19.69635
G1 X13.295 Y171.779 E19.70131
G1 X13.178 Y171.476 E19.70671
G1 X13.144 Y171.383 E19.70836
G1 X12.885 Y170.575 E19.72247
G1 X12.666 Y169.785 E19.7361
G1 X12.516 Y169.174 E19.74656
G1 X12.507 Y169.132 E19.74728
G1 X12.41 Y168.616 E19.75601
G1 X12.359 Y168.303 E19.76128
G1 X12.32 Y168.046 E19.76561
G1 X12.292 Y167.843 E19.76902
G1 X12.227 Y167.237 E19.77915
G1 X12.197 Y166.827 E19.78599
G1 X12.185 Y166.604 E19.7897
G1 X12.172 Y166.216 E19.79616
G1 X12.15 Y164.87 E19.81854
G1 X12.15 Y70.13 E21.39408
G1 X12.171 Y68.844 E21.41547
G1 X12.206 Y68.143 E21.42714
G1 X12.262 Y67.474 E21.4383
G1 X12.314 Y66.987 E21.44645
G1 X12.323 Y66.918 E21.4476
G1 X12.52 Y65.844 E21.46576
G1 X12.662 Y65.245 E21.476
G1 X12.847 Y64.565 E21.48772
G1 X13.025 Y63.988 E21.49776
G1 X13.172 Y63.548 E21.50548
G1 X13.197 Y63.478 E21.50671
G1 X13.465 Y62.8 E21.51884
G1 X13.593 Y62.507 E21.52415
G1 X13.719 Y62.229 E21.52923
G1 X14.121 Y61.441 E21.54394
G1 X14.506 Y60.759 E21.55697
G1 X14.868 Y60.165 E21.56853
G1 X14.904 Y60.11 E21.56963
G1 X15.15 Y59.751 E21.57686
G1 X15.328 Y59.502 E21.58195
G1 X15.505 Y59.261 E21.58693
G1 X15.596 Y59.141 E21.58943
G1 X16.119 Y58.505 E21.60313
G1 X16.606 Y57.957 E21.61532
G1 X17.133 Y57.405 E21.62801
G1 X17.21 Y57.33 E21.6298
G1 X17.487 Y57.07 E21.63611
G1 X17.733 Y56.847 E21.64164
G1 X17.999 Y56.613 E21.64753
G1 X18.058 Y56.563 E21.64881
G1 X18.686 Y56.071 E21.66208
G1 X19.331 Y55.603 E21.67533
G1 X20.001 Y55.154 E21.68875
G1 X20.079 Y55.106 E21.69027
G1 X20.692 Y54.757 E21.702
G1 X21.339 Y54.416 E21.71416
G1 X21.908 Y54.137 E21.7247
G1 X22.014 Y54.089 E21.72664
G1 X22.444 Y53.906 E21.73441
G0 F6000 X22.593 Y54.277
G1 F1200 X22.87 Y54.166 E21.73937
G1 X23.162 Y54.054 E21.74457
G1 X23.255 Y54.02 E21.74622
G1 X24.036 Y53.77 E21.75986
G1 X24.82 Y53.553 E21.77338
G1 X25.311 Y53.43 E21.7818
G1 X25.938 Y53.306 E21.79243
G1 X26.249 Y53.255 E21.79767
G1 X26.52 Y53.215 E21.80223
G1 X26.725 Y53.187 E21.80567
G1 X27.295 Y53.125 E21.8152
G1 X27.433 Y53.114 E21.8175
G1 X27.7 Y53.096 E21.82196
G1 X27.925 Y53.084 E21.8257
G1 X28.292 Y53.072 E21.83181
G1 X29.63 Y53.05 E21.85406
G1 X205.37 Y53.05 E24.77663
G1 X206.649 Y53.071 E24.7979
G1 X207.324 Y53.105 E24.80914
G1 X207.993 Y53.161 E24.82031
G1 X208.461 Y53.211 E24.82813
G1 X208.53 Y53.22 E24.82929
G1 X209.564 Y53.409 E24.84677
G1 X210.163 Y53.551 E24.85701
G1 X210.822 Y53.731 E24.86837
G1 X211.398 Y53.909 E24.8784
G1 X211.985 Y54.11 E24.88871
G1 X212.046 Y54.133 E24.8898
G1 X212.823 Y54.464 E24.90384
G1 X213.543 Y54.806 E24.9171
G1 X214.068 Y55.074 E24.9269
G1 X214.141 Y55.114 E24.92829
G1 X214.567 Y55.36 E24.93647
G1 X214.794 Y55.499 E24.94089
G1 X215.043 Y55.657 E24.9458
G1 X215.164 Y55.736 E24.9482
G1 X215.808 Y56.193 E24.96133
G1 X216.428 Y56.67 E24.97434
G1 X216.939 Y57.091 E24.98535
G1 X217.013 Y57.156 E24.98699
G1 X217.304 Y57.421 E24.99354
G1 X217.501 Y57.608 E24.99805
G1 X217.768 Y57.871 E25.00429
G1 X217.861 Y57.966 E25.0065
G1 X218.118 Y58.238 E25.01272
G1 X218.339 Y58.481 E25.01818
G1 X218.562 Y58.735 E25.0238
G1 X218.619 Y58.802 E25.02527
G1 X219.101 Y59.415 E25.03823
G1 X219.569 Y60.059 E25.05147
G1 X219.981 Y60.67 E25.06373
G1 X220.027 Y60.744 E25.06518
G1 X220.384 Y61.367 E25.07712
G1 X220.725 Y62.013 E25.08927
G1 X221.019 Y62.617 E25.10044
G1 X221.069 Y62.729 E25.10248
G1 X221.225 Y63.099 E25.10916
